X:947
T:Happy Birthday
C:Joe Buchanan's Scottish Tome - Page 551.3
I:551 3
Z:Carl Allison
R:Waltz
L:1/4
M:3/4
K:C
G/G/ A G | c B2 | G/G/ A G | d c2 | G/G/ g e | c B A | f/f/ e c | d c2 | [K:F]
C/2C/2 D C | F E2 | C/2C/2 D C | G F2 | C/2C/2 c A | F E D | B/2B/2 A F | G F2 | 

